X:1
T:In Gott glaub ich
T:Nicolas Piltz
T:Source : DDT 34---Leipzig---Breitkopf & Härtel---J.Wolf---1908. First print : Newe Deudsche Geistliche Gesenge---Wittemberg---G.Rhau---1544. Editor : André Vierendeels (09/08/17).
T:Notes : Original clefs : C1, C3, C4, F4 Original note values have been halved Editorial accidentals above the staff Signed "Nicolaus P."
T:In Gott glaub ich
T:©
T:©
T:©
T:©
T:©
C:Nicolas Piltz
Z:©
%%score [ 1 [ 2 3 ] 4 ]
L:1/8
Q:1/4=120
M:2/2
K:C
V:1 treble nm="Soprano" snm="S"
V:2 treble-8 nm="Tenor 1" snm="T 1"
V:3 treble-8 nm="Tenor 2" snm="T 2"
V:4 bass nm="Bass" snm="B"
V:1
 z8 | z8 | z8 | E4 A4 | G4 E2 c2 | B3 A GF G2 | A4 z2 G2 |"^#" F2 G4 F2 |"^-natural" G6 FE | %9
w: |||In Gott|glaub ich, dasz|er _ _ _ _|hat, dasz|er _ _||
w: |||Kein Not|mag mir zu-|fü- * * * gen|Spott, zu-|fü- * *|* gen _|
 D4 z2 D2 | G2 F2 E2 F2 | G2 A2 G2 F2- | FE E4 D2 |1 E8 :|2 E8 || z2 G4 F2 | G2 c2 BAGF | %17
w: hat aus|nichts ge- schaf- fen|Him- * mel und|_ _ Er- *|de.||Zu al-|* ler Frist _ _ _|
w: Spott, er|sieht, dasz er mein|Be- schüt- zer wer-|||de.|||
 E2 A2 G2 F2 | G4 D2 E2 | F2 G2 E2 A2- |"^#" A2 G2 A4 | z2 E2 F2 G2- | GF E4 D2 | E2 B2 c2 B2 | %24
w: _ all- mäch- tig|ist, sein G'walt|musz man be- ken-|* * nen,|läszt sich Va-|* * ter nen-|nen. Trotz wer mir|
w: |||||||
 A2 G2 A2 F2 | E4 z4 | z4 z2 B2 | c2 B2 c2 A2- | A2 G4 F2 | G4 z2 G2 | F2 E2 D2 C2 | F2 E4 D2 | %32
w: tu, der ist mein|Ruh.|Tod,|Sünd und Hell, kein|_ Un- ge-|fäll Wi-|der die- sen Gott|kann brin- *|
w: ||||||||
 E2 c3 B A2 | G4 B2 c2 | d4 A4 | z4 z2 A2- | A2 G2 A2 B2 | c2 B2 A2 G2 | F2 E4 D2 | E8- | E8- | %41
w: gen. O _ _|Her- * *|re Gott,|für|_ _ Freud mein|Herz _ _ musz|sprin- * *|gen.|_|
w: |||||||||
 E8 |] %42
w: |
w: |
V:2
 B4 e4 | d4 B4 | c4 d2 e2- | edcB A4 | e4 z2 c2 | d4 e4 | e4 z2 e2 | d2 c2 d4 | d4 z2 D2 | %9
w: In Gott|glaub ich,|dasz er _||hat, in|Gott glaub|ich, dasz|er _ _|hat aus|
w: Kein Not|mag mir|zu- fü- *|* * * * gen|Spott, kein|Not mag|mir zu-|fü- * gen|Spott, er|
 G2 F2 E2 F2 | G2 A2 G2 c2- | cB A2 B2 c2- | cd e2 A4 |1 z8 :|2 z2 A2 B2 c2 || d2 c2 B2 A2 | %16
w: nichts ge- schaf- fen|Him- mel und Er-||* * * de.||Zu al- ler|Frist _ _ all-|
w: sieht, dasz er mein|Be- schüt- * *|* * * zer wer-|* * * de.||||
 G2 A2 B2 E2 | z2 e4 d2 | e4 f2 g2 | cdef g2 f2 | e4 z2 e2 | d2 c4 BA | B2 c2 A2 B2 | c2 B2 A2 G2 | %24
w: mäch- * tig ist,|sein Ge-|walt musz man|be- * * * ken- *|nen, läszt|sich Va- * *|* * ter nen-|nen, Trotz wer wir|
w: ||||||||
 F2 G2 D2 d2 | e6 d2 | c3 B A2 G2 | F2 E2 z2 e2- | e2 d2 e2 A2 | B3 c d2 e2 | A2 c2 d2 e2- | %31
w: tu, der ist mein|Ruh. Tod,|Sûnd und Hell, kein|Ung- fäll Wi-|* der die- sem|Gott _ _ kann|brin- * * *|
w: |||||||
 edcB A2 B2 | c8 | z2 G4 A2 | B4 c4 | d4 c3 d | ef g2 f2 ed | c2 d2 A2 e2 | d2 e2 A4 | c3 B A2 G2 | %40
w: |gen.|O _|Her- re|Gott, für _|_ _ Freu- * * *|den mein Herz musz|sprin- * *||
w: |||||||||
 A2 B2 c4 | B8 |] %42
w: |gen.|
w: ||
V:3
 z8 | z8 | z8 | z8 | E4 A4 | G4 E4 | c6 B2 | A2 G2 A4 | G8 | z8 | z2 D2 G2 F2 | E2 F2 G2 A2- | %12
w: ||||In Gott|glaub ich,|dasz _|_ _ er|hat||aus nichts ge-|schaf- fen Him- mel|
w: ||||Kein Not|mag mir|zu- *|fü- * gen|Spott,||er sieht, dasz|er mein Be- schüt-|
 A2 G2 F4 |1 E8 :|2 E8 || z4 z2 D2 | E2 F2 G4 | c4 B2 A2 | G4 z2 G2 | A2 B2 c2 d2 | B4 A4 | %21
w: _ und Er-|de.||Zu|al- ler Frist|all- mäch- tig|ist, sein|G'walt musz man be-|ken- nen,|
w: * zer wer-||de.|||||||
 z2 G2 A2 G2 | E2 G2 F4 | E4 z2 B2 | c2 B2 A4 | z2 G2 A2 F2 | E4 z2 G2 | A2 G2 F2 c2- | c2 B2 A4 | %29
w: läszt sich ein|Va- ter nen-|nen. Trotz|wer wir tu,|der ist mein|Ruh. Tod,|Sünd und Hell, kein|_ un- ge-|
w: ||||||||
 G4 z2 G2 | A2 A2 G2 A2- | A2 G2 F4 | E4 z4 | e4 d2 c2 | B4 z2 A2 | A2 G2 A4 | c6 B2 | %37
w: fäll wi-|der die- sen Gott|_ kann brin-|gen,|O Her- re|Gott, für|Freu- den mein|Herz- *|
w: ||||||||
 A2 G2 F2 E2 | D2 E2 F4 | E8- | E8- | E8 |] %42
w: * * * musz|sprin- * *|gen.|_||
w: |||||
V:4
 z8 | z4 E,4 | A,4 G,4 | E,4 C4- | C2 B,2 A,4 | z4 G,4 | C,3 D, E,4 | F,2 E,2 D,4 | G,,8 | %9
w: |In|Gott glaub|ich, dasz|_ er hat,|dasz|er _ _||hat|
w: |Kein|Not mag|mir zu-|* fû- gen,|zu-|fü- * *|* * gen|Spott,|
 z2 D,2 G,2 F,2 | E,2 F,2 G,2 A,2 | G,2 F,2 E,2 A,,2- | A,,B,, C,2 D,4 |1 A,,8 :|2 A,,4 z2 A,,2 || %15
w: aus nichts ge-|schaf- fen Hi- *|mel und Er- *||de.|* Zu|
w: er sieht, dasz|er _ mein Be-|schüt- zer wer- *|||de. *|
 B,,2 C,2 D,4 | z2 A,,2 E,4 | C,3 D, E,2 F,2 | E,4 D,2 C,2 | A,,2 E,4 D,2 | E,4 z2 A,,2 | %21
w: al- ler Frist|all- mäch-|||* * tig|ist, sein|
w: ||||||
 B,,2 C,2 A,,2 E,2- | E,2 C,2 D,4 | z2 E,2 A,,2 E,2 | A,2 E,2 F,2 D,2 | C,4 z2 D,2 | %26
w: G'walt musz man be-|* ken- nen,|läszt sich ein|Va- ter nen- *|nen. Trotz|
w: |||||
 A,,2 C,2 D,2 E,2 | F,2 G,2 A,2 A,,2- | A,,2 B,,2 C,2 D,2 | G,,2 G,2 F,2 E,2 | D,2 C,2 B,,2 A,,2- | %31
w: wer mir tu, der|ist mein Ruh. Tod,|_ Sünd _ und|Hell kein Un- ge|fäll kann brin- *|
w: |||||
 A,,B,, C,2 D,4 | z2 A,,3 B,,C,D, | E,2 C,2 B,,2 A,,2 | G,,2 D,4 C,2 | B,,4 A,,2 A,2- | %36
w: * * * gen.|O _ _ _|Her- * * *|* Gott, für|Freu- den mein|
w: |||||
 A,G, E,2 F,2 G,2 | A,2 B,2 C2 C,2 | D,2 C,2 D,4 | A,,4 C,3 B,, | A,,2 G,,2 A,,4 | E,8 |] %42
w: _ _ _ _ _|Herz _ _ musz|sprin- * *|gen, musz _|_ _ sprin-|gen.|
w: ||||||

